X: 32
T: Road to Malvern
C:Jim Childress
B: canberra pickers and fiddlers
B: tunes
M:C|
L:1/8
Q: 1/4=100
K:A
V:1 
%
cd|efed cBAc|BAFA E3D|FGAF EFAB|cBAc B2cd|
efed cBAc|BAFA E3D|FGAF EFED|CA,B,C A,2:|
|:AB|cBAF EFA2|B3c B2 AB|cBA2 [A4f4]|[A6e6]AB|
cBAF EFA2|B3c B2AB|cABc A3:||
% abcbook-tune_id 63da593469e43f2e32b2a60f
% abcbook-tune_composer_id 
% abcbook-link-0 https://www.youtube.com/watch?v=Qj1lYAkdFrM
% abcbook-link-start-at-0 5
% abcbook-boost 12
% abcbook-difficulty 0
% abcbook-tags canberra pickers and fiddlers,old time tunes,© free
% abcbook-tablature 
% abcbook-transpose 
% abcbook-tuning AEAE
% abcbook-lastupdated 1702759782249
% abcbook-src-url https://tunebook.net/scrape/tunes.abc
% abcbook-soundfonts 
% abcbook-repeats 1
%%gchordfont "itim-music,Itim" 20

